!!!SOCIAL_FUNCTION:	miscellaneous songs
!!!PDT:	1943
!!!OTL: No_91_Song_of_Happiness.krn
!!!REG: British Columbia
**kern
*staff1
=1-
*clefF4
*k[b-e-a-d-]
*M4/4
8.B-\L
16B-\Jk
[4B-\
12B-\L]
12A-\
12A-\J
16c\LK
8.B-\J
=2
8.A-\L
16F\Jk
(4F\
12F\L)
12A-\
12F\J
8.E-/L
16C/Jk
=3||
*M3/4
2.E-\
=4||
*M4/4
8.B-\L
16B-\Jk
(4B-\
12B-\L)
12A-\
12B-\J
16c\LK
8.B-\J
=5
8.A-\L
16F\Jk
4F\
8r
8F\
16A-\LK
8.F\J
=6||
*M2/4
8.E-/L
16C/Jk
4E-\
=7
8.E-\L
16E-\Jk
4C/
=8
8.BB-/L
16AA-/Jk
4AA-/
=9
8.C/L
16C/Jk
4BB-/
=10
2AA-/
==
*-
